!!!!SEGMENT: pl-kk--kk-i-122--003_anonim--alleluia-virga-iesse-no-3.krn
!!!cenid: 18xx:2549
!!!COM: Anonim
!!!COM-rismID: pe30004985
!!!CDT:
!!!CNT:
!!!OTL: Alleluia Virga Iesse No. 3
!!!PDT:
!!!AGN: Sacred
!!!SMS-siglum: PL-Kk
!!!SMS-shelfmark: Kk.I.122
!!!SMS-shelfwork: 003 W
!!!SMS-variant: Baſso PL-Kk KK.I.122:0014
!!!SMS-altvar: Baſsô PL-Kk KK.I.122:0002
!!!NIFC-rismSourceID: 1001153679
!!!NIFC-rismChildID: 1001153682
!!!NIFC-islandoraID: pl-kk:3474
!!!URL-pdf-islandora: https://repozytorium.nifc.pl/islandora/object/pl-kk%3A3474/datastream/PDF/view
!!!URL-scan: https://polish.musicsources.pl/pl/lokalizacje/galeria/rekopisy/5755 @EN{Scan on Polish Music Sources Website} @PL{Skany w portalu Dziedzictwo Muzyki Polskiej w otwartym dostępie}
!!!IIIF:
!!!ONB-nifc: UWAGA: w zbiorze 5 Alleluia Virga Iesse. Numeracja plików zgodna ze źródłową.
!!!AIN: 1 alto 1 empty 1 tenor 1 vox
!!!key:
**kern	**text	**kern	**text	**kern	**text	**kern	**text
*part4	*part4	*part3	*part3	*part2	*part2	*part1	*part1
*staff4	*staff4	*staff3	*staff3	*staff2	*staff2	*staff1	*staff1
*Iempty	*	*Itenor	*	*Ialto	*	*Ivox	*
*I"Baſso	*	*I"Tenore	*	*I"Alto	*	*I"Canto	*
*I'B	*	*I'T	*	*I'A	*	*I'S	*
*clefF4	*	*clefC4	*	*clefC3	*	*clefC1	*
*k[b-]	*	*k[b-]	*	*k[b-]	*	*k[b-]	*
*F:	*	*F:	*	*F:	*	*F:	*
*M3/2	*	*M3/2	*	*M3/2	*	*M3/2	*
*2\right	*	*2\right	*	*2\right	*	*2\right	*
=1	=1	=1	=1	=1	=1	=1	=1
!	!	!	!	!	!	!LO:TX:a:t=N&colon; 3.	!
!LO:TX:a:t=N&colon; 3.	!	!LO:TX:a:t=N&colon; 3	!	!LO:TX:a:t=N&colon; 3	!	!	!
2F\	Al-	[2c\	Al-	2a\	Al-	2ff\	Al-
2G\	-le-	2c\]	.	2b-\	.	2ee\	.
2B-\	.	2c\	-le-	2g\	-le-	2dd\	-le-
=2	=2	=2	=2	=2	=2	=2	=2
2.A\	-lu-	2.A\	-lu-	2.f\	-lu-	2.cc\	-lu-
4G\	.	4B-\	.	4g\	.	4b-\	.
2F\	-ia	2c\	-ia	2a\	-ia	2a\	-ia
=3	=3	=3	=3	=3	=3	=3	=3
2B-\	al-	2B-\	al-	2g\	al-	4dd\	al-
.	.	.	.	.	.	4b-\	.
2c\	-le-	2c\	-le-	2f\	-le-	2a\	-le-
2C/	-lu-	2c\	-lu-	2e\	-lu-	2g\	-lu-
=4	=4	=4	=4	=4	=4	=4	=4
2F\	-ia.	2c\	-ia.	2f\	-ia.	2a\	-ia.
2B-\	Vir-	2c\	Vir-	2e\	Vir-	2g\	Vir-
2A\	-ga	2c\	-ga	2f\	-ga	2a\	-ga
=5	=5	=5	=5	=5	=5	=5	=5
2G\	Jeſ-	1e	Jeſ-	1g	Jeſ-	1b-	Jeſ-
2C/	.	.	.	.	.	.	.
2F\	-se	2c\	-se	2f\	-se	2a\	-se
=6	=6	=6	=6	=6	=6	=6	=6
2BB-/	flo-	2d\	flo-	4g\	flo-	4b-\	flo-
.	.	.	.	4f\	.	4a\	.
2.C/	.	2.c\	.	2.e\	.	2.g\	.
4C/	-ru-	4c\	-ru-	4e\	-ru-	4g\	-ru-
=7	=7	=7	=7	=7	=7	=7	=7
!LO:LB:g=original	!	!LO:LB:g=original	!	!LO:LB:g=original	!	!LO:LB:g=original	!
2F\	-it:	2c\	-it.	2f\	-it,	2a\	-it:
2F\	Vor-	2c\	Vir-	2f\	Vir-	2a\	Vir-
2F\	-go	2d\	-go	2d\	-go	2bn\	-go
=8	=8	=8	=8	=8	=8	=8	=8
2E\	De-	2c\	De-	2g\	De-	2cc\	De-
2D\	-um	2Bn\	-um	2g\	-um	2ff\	-um
2C/	et	2c\	et	2g\	et	2ee\	et
=9	=9	=9	=9	=9	=9	=9	=9
2.C/	ho-	2.c\	ho-	2.g\	ho-	2.ee\	ho-
4D/	-mi-	4G/	-mi-	4f\	-mi-	4dd\	-mi-
2E\	-nem	2G/	-nem	2e\	-nem	2cc\	-nem
=10	=10	=10	=10	=10	=10	=10	=10
2F\	ge-	2A/	ge-	2f\	ge-	2dd\	ge-
2G\	.	2G/	.	2e\	.	2cc\	.
2GG/	-nu-	2G/	-nu-	2d\	-nu-	2bn\	-nu-
=11	=11	=11	=11	=11	=11	=11	=11
2C/	-it:	2G/	-it:	2e\	-it:	2cc\	-it:
2A\	pa-	2F#X/	pa-	2f#X\	pa-	2cc\	pa-
2F#X\	-cem	2A/	-cem	2f#\	-cem	2ee-X\	-cem
=12	=12	=12	=12	=12	=12	=12	=12
2G\	De-	2B-\	De-	2g\	De-	2dd\	De-
2D\	.	2A\	.	2f\	.	2cc\	.
2G\	-us	2B-\	-us	2g\	-us	2dd\	-us
=13	=13	=13	=13	=13	=13	=13	=13
!LO:LB:g=original	!	!LO:LB:g=original	!	!	!	!LO:LB:g=original	!
2G\	red-	4B-\	red-	1g	red-	4dd\	red-
.	.	4A\	.	.	.	4cc\	.
2E\	.	4A\	.	.	.	4cc\	.
.	.	4G\	.	.	.	4b-\	.
2Fn\	-di-	2c\	-di-	4g\	-di-	4b-\	-di-
.	.	.	.	4fn\	.	4a\	.
=14	=14	=14	=14	=14	=14	=14	=14
2C/	-dit,	2c\	-dit,	2e\	-dit,	2g/	-dit,
2C/	in	2c\	in	2e\	in	2g/	in
2E\	se	2c\	se	2g\	se	2b-/	se
=15	=15	=15	=15	=15	=15	=15	=15
2F\	re-	2c\	re-	2f\	re-	2a\	re-
2E\	.	2B-\	.	2g\	.	2b-\	-con-
2F\	-con-	2A\	-con-	2a\	-con-	2cc\	.
=16	=16	=16	=16	=16	=16	=16	=16
2.F\	-ci-	2.A\	-ci-	2.a\	-ci-	2.cc\	-ci-
4G\	-li-	4B-\	-li-	4g\	-li-	4b-\	-li-
2A\	-ans	2c\	-ans	2f\	-ans	2a\	-ans
=17	=17	=17	=17	=17	=17	=17	=17
4B-\	i-	4B-\	i-	4g\	i-	4dd\	i-
4B-\	-ma	4c\	-ma	4g\	-ma	4b-\	-ma
2c\	sum-	1c	sum-	2f\	sum-	2a\	sum-
2C/	.	.	.	2e\	.	2g\	.
=18	=18	=18	=18	=18	=18	=18	=18
!LO:LB:g=original	!	!LO:LB:g=original	!	!	!	!	!
2F\	-mis	2c\	-mis	2f\	-mis	2a\	-mis
2c\	al-	2F/	al-	2a\	al-	2cc\	al-
2B-\	-le-	2G/	-le-	2g\	-le-	2cc\	-le-
=19	=19	=19	=19	=19	=19	=19	=19
!	!	!	!	!LO:LB:g=original	!	!LO:LB:g=original	!
2A\	-lu-	2A/	-lu-	2f\	-lu-	1cc	-lu-
2G\	.	2B-/	.	2e\	.	.	.
2F\	-ia	2A/	-ia	2f\	-ia	2cc\	-ia
=20	=20	=20	=20	=20	=20	=20	=20
2B-\	al-	2B-/	al-	2g\	al-	2dd\	al-
2c\	-le-	2A/	-le-	2f\	-le-	2cc\	-le-
2C/	-lu-	2G/	-lu-	2e\	-lu-	2cc\	-lu-
=21	=21	=21	=21	=21	=21	=21	=21
!LO:TX:t=P:problem=na kresce podwójna fermata	!	!LO:TX:t=P:problem=na kresce podwójna fermata	!	!LO:TX:t=P:problem=na kresce podwójna fermata	!	!LO:TX:t=P:problem=na kresce podwójna fermata	!
1.F	-ia	1.A	-ia	1.f	-ia	1.cc	-ia
==	==	==	==	==	==	==	==
*-	*-	*-	*-	*-	*-	*-	*-
!!!system-decoration: [(s1,s2,s3,s4)]
!!!ENC: Kamil Watkowski
!!!END: 2021-08-05
!!!YEC: Copyright 2022 Narodowy Instytut Fryderyka Chopina (https://polishscores.org)
!!!YEM: License CC-BY-4.0 (https://creativecommons.org/licenses/by/4.0)
